X:1
T:Love is the cause of my mourning
S:from Stuart's 'Musick for Allan Ramsay's ..Scots Songs (TTM), c 1725-6
S:via 'Sources of Irish Traditional Music', #454, 1998
Z: Bruce Olson  abcusers 2002-7-24
Q:1/8=120
L:1/8
M:3/4
K:D % Posted as F#Phrygian
D3 EFA|F3EF/E/D|d3e d/e/f|F4FA|B2 dBAF|ABAFED|fedBAF|\
EFEDB,|D3EFA|F3ED2|d3e d/e/f|F4BA|F2AFED|E3DEF|A2F2FA|F4|]
